app/images/search.svg

<?xml version="1.0" encoding="UTF-8" standalone="no"?>
<svg width="512px" height="512px" viewBox="0 0 512 512" version="1.1" xmlns="http://www.w3.org/2000/svg" xmlns:xlink="http://www.w3.org/1999/xlink" xmlns:sketch="http://www.bohemiancoding.com/sketch/ns">
    <!-- Generator: Sketch 3.0.2 (7799) - http://www.bohemiancoding.com/sketch -->
    <title>search</title>
    <description>Created with Sketch.</description>
    <defs></defs>
    <g id="Page-1" stroke="none" stroke-width="1" fill="none" fill-rule="evenodd" sketch:type="MSPage">
        <g id="search" sketch:type="MSArtboardGroup" stroke-opacity="0.296478714" stroke="#000000" fill="#FFFFFF">
            <path d="M280.977829,320.44661 L388.64561,395.836402 C399.512685,403.44561 414.486453,400.810611 422.094192,389.945634 C429.700259,379.083045 427.064883,364.114433 416.189614,356.499488 L310.733405,282.658255 C319.391821,265.718035 324.275862,246.526412 324.275862,226.193548 C324.275862,157.603346 268.697417,102 200.137931,102 C131.578445,102 76,157.603346 76,226.193548 C76,294.783751 131.578445,350.387097 200.137931,350.387097 C231.014459,350.387097 259.258106,339.10934 280.977829,320.44661 L280.977829,320.44661 Z M200.137931,302.365591 C242.187749,302.365591 276.275862,268.262206 276.275862,226.193548 C276.275862,184.124891 242.187749,150.021505 200.137931,150.021505 C158.088113,150.021505 124,184.124891 124,226.193548 C124,268.262206 158.088113,302.365591 200.137931,302.365591 Z" id="Rectangle-4" sketch:type="MSShapeGroup"></path>
        </g>
    </g>
</svg>

<svg width="512" height="512" viewBox="0 0 512 512" xmlns="http://www.w3.org/2000/svg" xmlns:sketch="http://www.bohemiancoding.com/sketch/ns"><title>search</title><path d="M280.978 320.447l107.668 75.39c10.867 7.609 25.841 4.974 33.449-5.891 7.606-10.863 4.971-25.831-5.905-33.446l-105.456-73.841c8.658-16.94 13.542-36.132 13.542-56.465 0-68.59-55.578-124.194-124.138-124.194-68.559 0-124.138 55.603-124.138 124.194 0 68.59 55.578 124.194 124.138 124.194 30.877 0 59.12-11.278 80.84-29.94zm-80.84-18.081c42.05 0 76.138-34.103 76.138-76.172 0-42.069-34.088-76.172-76.138-76.172-42.05 0-76.138 34.103-76.138 76.172 0 42.069 34.088 76.172 76.138 76.172z" sketch:type="MSShapeGroup" stroke-opacity=".296" stroke="#000" fill="#fff"/></svg>
